icons4/cinny.svg

<svg xmlns="http://www.w3.org/2000/svg" xmlns:xlink="http://www.w3.org/1999/xlink" id="body_1" width="90" height="90"><g><g><g><path fill="#FFF" fill-rule="nonzero" stroke="none" d="M17.5 9C 17.5 11.34721 16.670135 13.350679 15.010407 15.010407C 13.350679 16.670135 11.34721 17.5 9 17.5C 6.65279 17.5 4.6493206 16.670135 2.9895926 15.010407C 1.3298643 13.350679 0.5 11.34721 0.5 9C 0.5 6.65279 1.3298643 4.6493206 2.9895926 2.9895926C 4.6493206 1.3298643 6.65279 0.5 9 0.5C 11.34721 0.5 13.350679 1.3298643 15.010407 2.9895926C 16.670135 4.6493206 17.5 6.65279 17.5 9C 17.5 9.098912 17.498276 9.197794 17.494823 9.296646" transform="matrix(5 0 0 5 0 0)"/></g><g><path fill="#000" fill-rule="nonzero" stroke="none" d="M9 0C 4 0 0 4 0 9C 0 14 4 18 9 18C 14 18 18 14 18 9C 18 4 14 0 9 0zM1.2 10.8L4.7 8.5C 4.7 8.4 4.7 8.3 4.7 8.2C 4.7 6.3999996 6 5 7.7999997 4.7999997C 7.8999996 4.7999997 7.9999995 4.7999997 8.2 4.7999997C 9.4 4.7999997 10.5 5.3999996 11.1 6.3999996C 11.400001 6.2999997 11.700001 6.2999997 12 6.2999997C 12.4 6.2999997 12.8 6.2999997 13.2 6.3999996C 13.9 6.5999994 14.599999 6.8999996 15.2 7.2999997C 14.6 7.1 14 7 13.3 7C 12.1 7 11.1 7.4 10.4 8.4C 9.7 9.299999 9.299999 10.4 9.299999 11.599999C 9.299999 13.099999 8.9 14.5 7.999999 15.799999C 7.699999 16.199999 7.499999 16.5 7.199999 16.8C 4.2 16.1 1.9 13.8 1.2 10.8z" transform="matrix(5 0 0 5 0 0)"/><path fill="#000" fill-rule="nonzero" stroke="none" d="M10 6.4C 10 6.5380716 9.951185 6.6559224 9.853554 6.7535534C 9.755922 6.851185 9.638071 6.9000006 9.5 6.9C 9.361929 6.9000006 9.244078 6.851185 9.146446 6.7535534C 9.048816 6.6559224 9 6.5380716 9 6.4C 9 6.2619295 9.048816 6.1440783 9.146446 6.046447C 9.244078 5.948816 9.361929 5.9 9.5 5.9C 9.638071 5.9 9.755922 5.948816 9.853554 6.046447C 9.951185 6.1440783 10 6.2619295 10 6.4C 10 6.405819 9.999899 6.4116354 9.999696 6.41745" transform="matrix(5 0 0 5 0 0)"/></g></g></g></svg>

<svg xmlns="http://www.w3.org/2000/svg" xml:space="preserve" width="18" height="18"><circle cx="9" cy="9" r="8.5" fill="#FFF"/><path d="M9 0C4 0 0 4 0 9s4 9 9 9 9-4 9-9-4-9-9-9M1.2 10.8l3.5-2.3v-.3C4.7 6.4 6 5 7.8 4.8h.4c1.2 0 2.3.6 2.9 1.6.3-.1.6-.1.9-.1.4 0 .8 0 1.2.1.7.2 1.4.5 2 .9-.6-.2-1.2-.3-1.9-.3-1.2 0-2.2.4-2.9 1.4-.7.9-1.1 2-1.1 3.2 0 1.5-.4 2.9-1.3 4.2-.3.4-.5.7-.8 1-3-.7-5.3-3-6-6"/><circle cx="9.5" cy="6.4" r=".5"/></svg>
